icons/calculator.svg

<svg xmlns="http://www.w3.org/2000/svg" width="24" height="24" viewBox="0 0 24 24">
  <path d="M18,1 C19.1045695,1 20,1.8954305 20,3 L20,21 C20,22.1045695 19.1045695,23 18,23 L6,23 C4.8954305,23 4,22.1045695 4,21 L4,3 C4,1.8954305 4.8954305,1 6,1 L18,1 Z M16.5,13 C15.6715729,13 15,13.6715729 15,14.5 L15,14.5 L15,19.5 C15,20.3284271 15.6715729,21 16.5,21 C17.3284271,21 18,20.3284271 18,19.5 L18,19.5 L18,14.5 C18,13.6715729 17.3284271,13 16.5,13 Z M7.5,18 C6.67157288,18 6,18.6715729 6,19.5 C6,20.3284271 6.67157288,21 7.5,21 C8.32842712,21 9,20.3284271 9,19.5 C9,18.6715729 8.32842712,18 7.5,18 Z M12,18 C11.1715729,18 10.5,18.6715729 10.5,19.5 C10.5,20.3284271 11.1715729,21 12,21 C12.8284271,21 13.5,20.3284271 13.5,19.5 C13.5,18.6715729 12.8284271,18 12,18 Z M7.5,13 C6.67157288,13 6,13.6715729 6,14.5 C6,15.3284271 6.67157288,16 7.5,16 C8.32842712,16 9,15.3284271 9,14.5 C9,13.6715729 8.32842712,13 7.5,13 Z M12,13 C11.1715729,13 10.5,13.6715729 10.5,14.5 C10.5,15.3284271 11.1715729,16 12,16 C12.8284271,16 13.5,15.3284271 13.5,14.5 C13.5,13.6715729 12.8284271,13 12,13 Z M7.5,8 C6.67157288,8 6,8.67157288 6,9.5 C6,10.3284271 6.67157288,11 7.5,11 C8.32842712,11 9,10.3284271 9,9.5 C9,8.67157288 8.32842712,8 7.5,8 Z M12,8 C11.1715729,8 10.5,8.67157288 10.5,9.5 C10.5,10.3284271 11.1715729,11 12,11 C12.8284271,11 13.5,10.3284271 13.5,9.5 C13.5,8.67157288 12.8284271,8 12,8 Z M16.5,8 C15.6715729,8 15,8.67157288 15,9.5 C15,10.3284271 15.6715729,11 16.5,11 C17.3284271,11 18,10.3284271 18,9.5 C18,8.67157288 17.3284271,8 16.5,8 Z M16.5,3 L7.5,3 C6.67157288,3 6,3.67157288 6,4.5 C6,5.32842712 6.67157288,6 7.5,6 L7.5,6 L16.5,6 C17.3284271,6 18,5.32842712 18,4.5 C18,3.67157288 17.3284271,3 16.5,3 L16.5,3 Z"/>
</svg>

<svg xmlns="http://www.w3.org/2000/svg" viewBox="0 0 24 24">
  <path d="M18 1a2 2 0 0 1 2 2v18a2 2 0 0 1-2 2H6a2 2 0 0 1-2-2V3c0-1.1.9-2 2-2h12zm-1.5 12c-.83 0-1.5.67-1.5 1.5v5a1.5 1.5 0 0 0 3 0v-5c0-.83-.67-1.5-1.5-1.5zm-9 5a1.5 1.5 0 1 0 0 3 1.5 1.5 0 0 0 0-3zm4.5 0a1.5 1.5 0 1 0 0 3 1.5 1.5 0 0 0 0-3zm-4.5-5a1.5 1.5 0 1 0 0 3 1.5 1.5 0 0 0 0-3zm4.5 0a1.5 1.5 0 1 0 0 3 1.5 1.5 0 0 0 0-3zM7.5 8a1.5 1.5 0 1 0 0 3 1.5 1.5 0 0 0 0-3zM12 8a1.5 1.5 0 1 0 0 3 1.5 1.5 0 0 0 0-3zm4.5 0a1.5 1.5 0 1 0 0 3 1.5 1.5 0 0 0 0-3zm0-5h-9a1.5 1.5 0 0 0 0 3h9a1.5 1.5 0 0 0 0-3z"/>
</svg>
